assets/Graduation cap/Flat/graduation_cap_flat.svg

<svg width="32" height="32" viewBox="0 0 32 32" fill="none" xmlns="http://www.w3.org/2000/svg">
<path d="M19.3 23.1376H12.66C8.81996 23.1376 5.70996 20.0276 5.70996 16.1876V11.8276H26.24V16.1876C26.25 20.0276 23.14 23.1376 19.3 23.1376Z" fill="#533566"/>
<path d="M17.13 5.2775L29.41 11.5675C30.17 11.9575 30.17 13.0475 29.41 13.4375L17.13 19.7275C16.41 20.0975 15.57 20.0975 14.85 19.7275L2.57 13.4375C1.81 13.0475 1.81 11.9575 2.57 11.5675L14.85 5.2775C15.56 4.9075 16.41 4.9075 17.13 5.2775Z" fill="#321B41"/>
<path d="M15.1499 12.0476C15.3399 11.6376 15.8299 11.4777 16.2299 11.6777L22.9399 15.1176C23.2099 15.2576 23.3699 15.5276 23.3699 15.8276V22.1076C23.9799 22.4076 24.3999 23.0276 24.3999 23.7476C24.3999 23.9076 24.3799 24.0577 24.3399 24.2077C24.3399 24.2177 24.3399 24.2176 24.3399 24.2276C24.3299 24.2676 24.3199 24.3176 24.2999 24.3576C24.2999 24.3676 24.2899 24.3776 24.2899 24.3876C24.2799 24.4276 24.2599 24.4676 24.2399 24.5076C24.2399 24.5176 24.2299 24.5276 24.2299 24.5276C24.1799 24.6376 24.1099 24.7476 24.0399 24.8376C24.0299 24.8576 24.0199 24.8676 23.9999 24.8876L24.4699 27.0876C24.7299 28.2976 23.8099 29.4376 22.5699 29.4376C21.3299 29.4376 20.4099 28.2976 20.6699 27.0876L21.1399 24.8876C20.8899 24.5776 20.7399 24.1876 20.7399 23.7576C20.7399 23.5076 20.7899 23.2676 20.8799 23.0576C20.8799 23.0476 20.8899 23.0376 20.8999 23.0276C20.9099 22.9976 20.9299 22.9577 20.9499 22.9277C20.9699 22.8877 20.9899 22.8476 21.0199 22.8076C21.0299 22.7976 21.0299 22.7876 21.0399 22.7776C21.2199 22.4976 21.4799 22.2676 21.7799 22.1176V16.3176L15.5299 13.1176C15.1399 12.9176 14.9599 12.4376 15.1499 12.0476Z" fill="#FFB02E"/>
</svg>

<svg xmlns="http://www.w3.org/2000/svg" width="32" height="32" fill="none"><path fill="#533566" d="M19.3 23.138h-6.64c-3.84 0-6.95-3.11-6.95-6.95v-4.36h20.53v4.36c.01 3.84-3.1 6.95-6.94 6.95Z"/><path fill="#321B41" d="m17.13 5.277 12.28 6.29c.76.39.76 1.48 0 1.87l-12.28 6.29c-.72.37-1.56.37-2.28 0l-12.28-6.29c-.76-.39-.76-1.48 0-1.87l12.28-6.29a2.48 2.48 0 0 1 2.28 0Z"/><path fill="#FFB02E" d="M15.15 12.048c.19-.41.68-.57 1.08-.37l6.71 3.44c.27.14.43.41.43.71v6.28a1.828 1.828 0 0 1 .97 2.1v.02c-.01.04-.02.09-.04.13 0 .01-.01.02-.01.03-.01.04-.03.08-.05.12 0 .01-.01.02-.01.02-.05.11-.12.22-.19.31-.01.02-.02.03-.04.05l.47 2.2a1.94 1.94 0 0 1-1.9 2.35 1.94 1.94 0 0 1-1.9-2.35l.47-2.2c-.25-.31-.4-.7-.4-1.13 0-.25.05-.49.14-.7 0-.01.01-.02.02-.03.01-.03.03-.07.05-.1.02-.04.04-.08.07-.12.01-.01.01-.02.02-.03.18-.28.44-.51.74-.66v-5.8l-6.25-3.2c-.39-.2-.57-.68-.38-1.07Z"/></svg>
